public/assets/standards/sci-ai/transforming-icon-1.svg

<svg width="34" height="32" viewBox="0 0 34 32" fill="none" xmlns="http://www.w3.org/2000/svg">
<path d="M12.29 1.53008V2.23008C12.29 2.89008 11.75 3.43008 11.09 3.43008H1.7C1.04 3.43008 0.5 3.97008 0.5 4.63008V23.5101C0.5 24.1701 1.04 24.7101 1.7 24.7101H24.79C25.45 24.7101 25.99 24.1701 25.99 23.5101V1.53008C25.99 0.870078 25.45 0.330078 24.79 0.330078H13.49C12.83 0.330078 12.29 0.870078 12.29 1.53008Z" fill="#006D68"/>
<path d="M19.8 8.49004V9.19004C19.8 9.85004 19.26 10.39 18.6 10.39H9.21001C8.55001 10.39 8.01001 10.93 8.01001 11.59V30.47C8.01001 31.13 8.55001 31.67 9.21001 31.67H32.3C32.96 31.67 33.5 31.13 33.5 30.47V8.49004C33.5 7.83004 32.96 7.29004 32.3 7.29004H21C20.34 7.29004 19.8 7.83004 19.8 8.49004Z" fill="#A7C553"/>
<path d="M30.1598 20.8599C30.1598 20.8599 25.9498 26.8599 20.7498 26.8599C15.5498 26.8599 11.3398 20.8599 11.3398 20.8599C11.3398 20.8599 15.5498 14.8599 20.7498 14.8599C25.9498 14.8599 30.1598 20.8599 30.1598 20.8599Z" fill="white"/>
<path d="M20.75 24.0999C22.5725 24.0999 24.0499 22.6224 24.0499 20.7999C24.0499 18.9773 22.5725 17.4999 20.75 17.4999C18.9274 17.4999 17.45 18.9773 17.45 20.7999C17.45 22.6224 18.9274 24.0999 20.75 24.0999Z" fill="#006D68"/>
</svg>

<svg xmlns="http://www.w3.org/2000/svg" width="34" height="32" fill="none" viewBox="0 0 34 32"><path fill="#006d68" d="M12.29 1.53v.7c0 .66-.54 1.2-1.2 1.2H1.7c-.66 0-1.2.54-1.2 1.2v18.88c0 .66.54 1.2 1.2 1.2h23.09c.66 0 1.2-.54 1.2-1.2V1.53c0-.66-.54-1.2-1.2-1.2h-11.3c-.66 0-1.2.54-1.2 1.2"/><path fill="#a7c553" d="M19.8 8.49v.7c0 .66-.54 1.2-1.2 1.2H9.21c-.66 0-1.2.54-1.2 1.2v18.88c0 .66.54 1.2 1.2 1.2H32.3c.66 0 1.2-.54 1.2-1.2V8.49c0-.66-.54-1.2-1.2-1.2H21c-.66 0-1.2.54-1.2 1.2"/><path fill="#fff" d="M30.16 20.86s-4.21 6-9.41 6-9.41-6-9.41-6 4.21-6 9.41-6 9.41 6 9.41 6"/><path fill="#006d68" d="M20.75 24.1a3.3 3.3 0 1 0 0-6.6 3.3 3.3 0 0 0 0 6.6"/></svg>
